svg/300/sharp/vo2_max-fill.svg

<svg xmlns="http://www.w3.org/2000/svg" width="48" height="48" viewBox="0 -960 960 960"><path d="M527.384-180.001V-398.77h158.769v218.769H527.384Zm38.769-38.769h81.231v-141.231h-81.231v141.231Zm167.693 118.769v-133.23h129.692v-55.693H733.846v-38.769h168.46v133.23H772.614v55.693h129.692v38.769h-168.46Zm-673.845-80V-570l275.923-219.307v-110.076h45.383v109.692L656.615-570.23v116.46H459v273.769h-44.384v-523.537l-56-46.462-56.001 46.462-.384 523.537H60.001Z"/></svg>

<svg xmlns="http://www.w3.org/2000/svg" width="48" height="48" viewBox="0 -960 960 960"><path d="M527.38-180v-218.77h158.77V-180H527.38Zm38.77-38.77h81.23V-360h-81.23v141.23ZM733.85-100v-133.23h129.69v-55.69H733.85v-38.77h168.46v133.23h-129.7v55.69h129.7V-100H733.85ZM60-180v-390l275.92-219.31v-110.07h45.39v109.69l275.3 219.46v116.46H459V-180h-44.38v-523.54l-56-46.46-56 46.46-.39 523.54H60Z"/></svg>
